dist/svg/window-list.svg

<!-- Generated by Trend Micro Style Portal -->
<svg version="1.1" xmlns="http://www.w3.org/2000/svg" width="16" height="16" viewBox="0 0 16 16">
  <title>window-list</title>
  <path fill="rgb(34,34,34)" d="M15 1h-14c-0.552 0.002-0.998 0.448-1 1v12c0.002 0.552 0.448 0.998 1 1h14c0.552-0.002 0.998-0.448 1-1v-12c-0.002-0.552-0.448-0.998-1-1h-0zM15 14h-14v-11h14zM13 7h-7v-1h7zM13 9h-7v-1h7zM5 7h-2v-1h2zM5 9h-2v-1h2zM13 11h-7v-1h7zM5 11h-2v-1h2z"></path>
</svg>

<svg width="16" height="16" viewBox="0 0 16 16" fill="rgb(34, 34, 34)" xmlns="http://www.w3.org/2000/svg"><title>window-list</title><path d="M15 1H1C0.448 1.002 0.002 1.448 0 2V14C0.002 14.552 0.448 14.998 1 15H15C15.552 14.998 15.998 14.552 16 14V2C15.998 1.448 15.552 1.002 15 1ZM15 14H1V3H15V14ZM13 7H6V6H13V7ZM13 9H6V8H13V9ZM5 7H3V6H5V7ZM5 9H3V8H5V9ZM13 11H6V10H13V11ZM5 11H3V10H5V11Z" fill="rgb(34, 34, 34)" fill-opacity="1.00"/></svg>
